X:1
T:John McNeil
T:John McNeil
T:Peter Milne
C:Peter Milne
L:1/8
Q:1/4=120
M:4/4
K:A
V:1 treble 
V:1
"^Slowly" C | (A,>C)(B,>D) (C>E)(D>F) | (E>=G)(F>A) (3^GAB (3ABc | (A,>C)(B,>D) (C>E)(D>g) | %4
 (3fed (3cBA (3GFE (3DCB, || (A,>C)(B,>D) (C>E)(D>F) | (E>=G)(F>A) (3^GAB (3ABc | %7
 (d>f)(B>d) (c>e)(A>c) | (B>d) (E>G) (A2 A) || e | (a>A)(c>e) a/g/f/e/ f/e/d/c/ | %11
 (d>f)(c>e) f<BB>g | a>Ac>e a/g/f/e/ d/c/B/A/ | (d>f)(e>g) a<AA>e | (a>A)(c>e) a/g/f/e/ f/e/d/c/ | %15
 (d>f)(e>c) f<BB>e | (3cAc (3BGB (3AFA (3ECE | (D>F) (E>G) (3AEC A, || %18

